src/lib/packages/icons/src/assets/filled/star-tag.svg

<svg width="24" height="24" viewBox="0 0 24 24" fill="none" xmlns="http://www.w3.org/2000/svg">
<path d="M17.667 2H6.33398C4.11198 2 3.00098 3.11101 3.00098 5.33301V15.333C3.00098 17.555 4.11198 18.666 6.33398 18.666H7.83398C8.35898 18.666 8.85299 18.913 9.16699 19.333L10.667 21.333C11.334 22.222 12.667 22.222 13.334 21.333L14.834 19.333C15.149 18.913 15.643 18.666 16.167 18.666H17.667C19.889 18.666 21 17.555 21 15.333V5.33301C21 3.11101 19.889 2 17.667 2ZM16.8311 9.64301L15.031 11.4C14.899 11.528 14.839 11.714 14.87 11.895L15.282 14.3C15.365 14.788 14.8549 15.16 14.4189 14.93L12.259 13.793C12.097 13.708 11.9039 13.708 11.7419 13.793L9.58398 14.929C9.14598 15.159 8.63599 14.786 8.71899 14.298L9.13098 11.895C9.16198 11.713 9.10197 11.528 8.96997 11.4L7.17004 9.64301C6.83904 9.32001 7.02103 8.757 7.47803 8.69L9.96802 8.328C10.149 8.302 10.306 8.18701 10.387 8.02301L11.4659 5.83398C11.6849 5.38998 12.316 5.38998 12.535 5.83398L13.614 8.02301C13.695 8.18801 13.852 8.302 14.033 8.328L16.5229 8.69C16.9799 8.756 17.1621 9.32001 16.8311 9.64301Z" fill="currentColor"/>
</svg>

<svg xmlns="http://www.w3.org/2000/svg" width="24" height="24" fill="none"><path fill="currentColor" d="M17.667 2H6.334C4.112 2 3.001 3.111 3.001 5.333v10c0 2.222 1.111 3.333 3.333 3.333h1.5c.525 0 1.019.247 1.333.667l1.5 2c.667.889 2 .889 2.667 0l1.5-2c.315-.42.809-.667 1.333-.667h1.5c2.222 0 3.333-1.111 3.333-3.333v-10C21 3.111 19.889 2 17.667 2Zm-.836 7.643-1.8 1.757a.56.56 0 0 0-.161.495l.412 2.405a.596.596 0 0 1-.863.63l-2.16-1.137a.556.556 0 0 0-.517 0l-2.158 1.136a.597.597 0 0 1-.865-.631l.412-2.403a.558.558 0 0 0-.161-.495l-1.8-1.757a.559.559 0 0 1 .308-.953l2.49-.362a.557.557 0 0 0 .419-.305l1.079-2.189a.596.596 0 0 1 1.069 0l1.079 2.189a.555.555 0 0 0 .419.305l2.49.362c.457.066.64.63.308.953Z"/></svg>
